src/icons/solid/file-music.svg

<svg xmlns="http://www.w3.org/2000/svg" viewBox="0 0 384 512"><!--! Font Awesome Pro 6.7.2 by @fontawesome - https://fontawesome.com License - https://fontawesome.com/license (Commercial License) Copyright 2024 Fonticons, Inc. --><path d="M64 0C28.7 0 0 28.7 0 64L0 448c0 35.3 28.7 64 64 64l256 0c35.3 0 64-28.7 64-64l0-288-128 0c-17.7 0-32-14.3-32-32L224 0 64 0zM256 0l0 128 128 0L256 0zm32 224l0 32 0 128c0 17.7-21.5 32-48 32s-48-14.3-48-32s21.5-32 48-32c5.6 0 11 .6 16 1.8l0-74.7-96 36L160 416c0 17.7-21.5 32-48 32s-48-14.3-48-32s21.5-32 48-32c5.6 0 11 .6 16 1.8l0-81.8 0-32c0-6.7 4.1-12.6 10.4-15l128-48c4.9-1.8 10.4-1.2 14.7 1.8s6.9 7.9 6.9 13.2z"/></svg>

<svg xmlns="http://www.w3.org/2000/svg" viewBox="0 0 384 512"><!--! Font Awesome Pro 6.5.2 by @fontawesome - https://fontawesome.com License - https://fontawesome.com/license (Commercial License) Copyright 2024 Fonticons, Inc. --><path d="M64 0C28.7 0 0 28.7 0 64V448c0 35.3 28.7 64 64 64H320c35.3 0 64-28.7 64-64V160H256c-17.7 0-32-14.3-32-32V0H64zM256 0V128H384L256 0zm32 224v32V384c0 17.7-21.5 32-48 32s-48-14.3-48-32s21.5-32 48-32c5.6 0 11 .6 16 1.8V279.1l-96 36V416c0 17.7-21.5 32-48 32s-48-14.3-48-32s21.5-32 48-32c5.6 0 11 .6 16 1.8V304 272c0-6.7 4.1-12.6 10.4-15l128-48c4.9-1.8 10.4-1.2 14.7 1.8s6.9 7.9 6.9 13.2z"/></svg>
